X: 13221
T: Bessies Hagges
T: Bessy's Hagges
N: The tune page and the index spell her name differently.
%R: air, reel
B: James Oswald "The Caledonian Pocket Companion" v.1 b.3 p.22 #1
S: https://ia800501.us.archive.org/18/items/caledonianpocket01rugg/caledonianpocket01rugg_bw.pdf
Z: 2020 John Chambers <jc:trillian.mit.edu>
M: C
L: 1/8
K: D
|: "_Slow"\
D2(TFE) D2A2 | (BA)(GF) TE3F | D2(TFE) D2A2 | (Bde)A TF2A2 |\
B2d2 TF2A2 | (BA)(GF) TE3F | D2F2 A2(de) | {de}f2D2 TF2A2 :|
|:\
D2A2 d2(cB) | c>d (c/d/e) TE3F | D2A2 d2(de) | Tc2(BA) d3e |\
fdec dBcA | BFGA TE3F | DEFG ABcA | (def)D TF2A2 :|
|:\
"_Var."d2dd d/e/f/g/ a/f/e/d/ | b(b/a/) (a/g/)(g/f/) {f}e3e | fdAd F/(E/F/G/) AF | (B/A/B/c/) (B/c/d/A/) FGAF |
(B/A/B/c/) (B/c/d/A/) (F/E/F/G/) F/G/A/F/ | BA G/F/d/F/ {F}TE3F | D(D/E/) F(F/G/) (A/c/B/)A/ de | f/g/e/f/ dD TF2A2 :|
|:\
(D/F/E/D/) (A/F/E/D/) d2(TcB) | cd (c/d/e) TE3F | D(D/E/ F/D/F/A/) (dc) (d/f/e/d/) | {d}c2TBA (dc)de | (f/d/Td3//c//d//) (e/c/Tc3//B/c/)
(d/B/TB3//A//B//) (c/A/TA3//G//A//) | (B/F/TF3//E//F//) dF {F}TE3F |\
(D/F/)(E/G/) (F/A/)(G/B/) (A/c/)(B/d/) (c/A/)(B/c/) | (d/c/d/e/) (d/e/f/)D/ TF2A2 :|


